X:1
T:Calarem, calarem pas
R:bourree a trois temps
A:France
F:http://simonwascher.info
Z:abc transcription Simon Wascher
M:3/8
L:1/16
K:C
ef |\
g2efg2 | c2G2c2 | dcd2d2 | e2c2ef |
g2efg2 | c2G2c2 | dcdedB | c4 :|
|: cd |\
e2dcd2 | G4c2 | dcd2d2 | e2c2cd |
e2dcd2 | G4c2 | BcdedB | c4 :|
